{ "compressionlevel":-1,
 "height":9,
 "infinite":false,
 "layers":[
        {
         "data":[3, 2, 0, 0, 0, 0, 0, 0, 0, 0,
            0, 2, 0, 0, 0, 0, 0, 0, 0, 0,
            0, 2, 0, 0, 0, 0, 0, 0, 0, 0,
            0, 2, 0, 0, 2, 0, 0, 2, 0, 0,
            0, 2, 0, 0, 0, 0, 0, 0, 0, 0,
            0, 2, 0, 2, 0, 0, 0, 0, 2, 0,
            0, 2, 0, 0, 2, 2, 2, 2, 0, 0,
            0, 2, 0, 0, 0, 0, 0, 0, 0, 0,
            4, 2, 0, 0, 0, 0, 0, 0, 0, 0],
         "height":9,
         "id":1,
         "name":"Tile Layer 1",
         "opacity":1,
         "type":"tilelayer",
         "visible":true,
         "width":10,
         "x":0,
         "y":0
        }, 
        {
         "data":[0, 0, 0, 0, 0, 0, 0, 0, 0, 0,
            0, 0, 0, 0, 0, 0, 0, 0, 0, 0,
            0, 0, 0, 0, 0, 0, 0, 0, 0, 0,
            0, 0, 0, 0, 0, 0, 0, 0, 0, 0,
            0, 0, 0, 0, 0, 0, 0, 0, 0, 0,
            0, 0, 0, 0, 0, 0, 0, 0, 0, 0,
            0, 0, 0, 0, 0, 0, 0, 0, 0, 0,
            0, 0, 0, 0, 0, 0, 0, 0, 0, 0,
            0, 0, 0, 0, 0, 0, 0, 0, 0, 0],
         "height":9,
         "id":3,
         "name":"Tile Layer 2",
         "opacity":1,
         "type":"tilelayer",
         "visible":true,
         "width":10,
         "x":0,
         "y":0
        }],
 "nextlayerid":4,
 "nextobjectid":1,
 "orientation":"orthogonal",
 "renderorder":"right-down",
 "tiledversion":"1.11.2",
 "tileheight":16,
 "tilesets":[
        {
         "columns":8,
         "firstgid":1,
         "image":"tilemap.png",
         "imageheight":128,
         "imagewidth":128,
         "margin":0,
         "name":"tilemap",
         "spacing":0,
         "tilecount":64,
         "tileheight":16,
         "tilewidth":16
        }],
 "tilewidth":16,
 "type":"map",
 "version":"1.10",
 "width":10
}