{ "compressionlevel":-1,
 "height":9,
 "infinite":false,
 "layers":[
        {
         "data":[4, 0, 0, 0, 0, 0, 0, 0, 0, 0,
            2, 2, 2, 2, 2, 2, 2, 2, 2, 0,
            0, 0, 5, 0, 2, 0, 0, 0, 2, 0,
            0, 0, 2, 0, 2, 2, 2, 5, 2, 0,
            5, 2, 2, 0, 5, 0, 0, 0, 2, 0,
            0, 0, 2, 0, 2, 2, 2, 2, 2, 0,
            5, 2, 2, 0, 0, 0, 0, 0, 0, 0,
            0, 0, 2, 2, 5, 2, 2, 2, 5, 0,
            0, 0, 2, 0, 0, 0, 2, 0, 0, 0],
         "height":9,
         "id":1,
         "name":"Tile Layer 1",
         "opacity":1,
         "type":"tilelayer",
         "visible":true,
         "width":10,
         "x":0,
         "y":0
        }, 
        {
         "data":[0, 41, 41, 41, 0, 0, 0, 0, 0, 0,
            0, 0, 0, 0, 0, 0, 0, 0, 0, 0,
            33, 0, 0, 0, 0, 26, 17, 33, 0, 0,
            0, 42, 0, 0, 0, 0, 0, 0, 0, 0,
            0, 0, 0, 0, 0, 41, 43, 44, 0, 0,
            17, 45, 0, 0, 0, 0, 0, 0, 0, 0,
            0, 0, 0, 0, 0, 0, 0, 0, 0, 0,
            33, 17, 0, 0, 0, 0, 0, 0, 0, 0,
            33, 17, 0, 17, 57, 0, 0, 41, 46, 0],
         "height":9,
         "id":3,
         "name":"Tile Layer 2",
         "opacity":1,
         "type":"tilelayer",
         "visible":true,
         "width":10,
         "x":0,
         "y":0
        }],
 "nextlayerid":4,
 "nextobjectid":1,
 "orientation":"orthogonal",
 "renderorder":"right-down",
 "tiledversion":"1.11.2",
 "tileheight":16,
 "tilesets":[
        {
         "columns":8,
         "firstgid":1,
         "image":"tilemap.png",
         "imageheight":128,
         "imagewidth":128,
         "margin":0,
         "name":"tilemap",
         "spacing":0,
         "tilecount":64,
         "tileheight":16,
         "tilewidth":16
        }],
 "tilewidth":16,
 "type":"map",
 "version":"1.10",
 "width":10
}